X:270
T: Streets of Mullingar
S: "Collection of the Dance Music of Ireland" (P. McNulty)
Z: B.Black
L: 1/8
M: 4/4
R: reel
K: G
GA | BAGF GFDE | =F2 AF CFAF | BAGF GFDG | cedc BG G2 |
BAGF GFDE | =F2 AF CFAF | BAGF GFDG | cedc BG G2 ||
gfgd Bcde | =fefc ABcd | gfgd BG (3ABc | dg (3gfg bgag |
gfgd Bcde | =fefc ABce | (3dcB (3cBA DEFG | cedc BG G2 ||
